usr/share/icons/biglinux-icons-material-dark/22/actions/entry-new.svg

<svg xmlns="http://www.w3.org/2000/svg" viewBox="0 0 22 22">
<defs id="defs3051">
<style id="current-color-scheme" type="text/css">
.ColorScheme-Text{color:#dedede}
</style>
</defs>
<path d="M16 3v2h-2v1h2v2h1V6h2V5h-2V3zM3 7v9h5v-4h7v2h1v-2h1v2h1v-2h1v-1H8V7zm1 1h3v7H4z" class="ColorScheme-Text" style="fill:currentColor;fill-opacity:1;stroke:none"/>
</svg>

<svg xmlns="http://www.w3.org/2000/svg" viewBox="0 0 22 22">
  <defs id="defs3051">
    <style type="text/css" id="current-color-scheme">
      .ColorScheme-Text {
        color:#dedede;
      }
      </style>
  </defs>
 <path 
    style="fill:currentColor;fill-opacity:1;stroke:none" 
    d="M 16 3 L 16 5 L 14 5 L 14 6 L 16 6 L 16 8 L 17 8 L 17 6 L 19 6 L 19 5 L 17 5 L 17 3 L 16 3 z M 3 7 L 3 16 L 8 16 L 8 12 L 15 12 L 15 14 L 16 14 L 16 12 L 17 12 L 17 14 L 18 14 L 18 12 L 19 12 L 19 11 L 8 11 L 8 7 L 3 7 z M 4 8 L 7 8 L 7 15 L 4 15 L 4 8 z "
    class="ColorScheme-Text"
    />  
</svg>
